icons/PaperPlane_filled.svg

<svg width="24" height="24" viewBox="0 0 24 24" fill="none" xmlns="http://www.w3.org/2000/svg">
<path fill-rule="evenodd" clip-rule="evenodd" d="M4.50561,3.43606c0.23461,-0.20569 0.57206,-0.24464 0.84736,-0.09781l14.99373,7.99665c0.0171,0.0089 0.0339,0.0185 0.0502,0.0287c0.0771,0.048 0.1432,0.1086 0.1967,0.1779c0.0918,0.1189 0.1464,0.2635 0.1552,0.4147c0.0014,0.0229 0.0017,0.0459 0.0009,0.0689c-0.0024,0.0704 -0.0146,0.1396 -0.036,0.2056c-0.0271,0.0838 -0.0681,0.1606 -0.1201,0.2279c-0.0665,0.0859 -0.1508,0.1564 -0.2469,0.2065l-14.99373,7.9967c-0.2753,0.1468 -0.61275,0.1079 -0.84736,-0.0978c-0.23462,-0.2057 -0.31738,-0.5352 -0.20782,-0.8273l2.6216,-6.991c0.02648,0.0028 0.05338,0.0043 0.08061,0.0043h6c0.4142,0 0.75,-0.3358 0.75,-0.75c0,-0.4142 -0.3358,-0.75 -0.75,-0.75h-6c-0.02724,0 -0.05413,0.0015 -0.08061,0.0043l-2.6216,-6.99095c-0.10956,-0.29214 -0.0268,-0.6216 0.20782,-0.82729z" fill="#002B51"/>
</svg>

<svg width="24" height="24" viewBox="0 0 24 24" fill="none" xmlns="http://www.w3.org/2000/svg">
<path fill-rule="evenodd" clip-rule="evenodd" d="M4.50561 3.43606C4.74022 3.23037 5.07767 3.19142 5.35297 3.33825L20.3467 11.3349C20.3638 11.3438 20.3806 11.3534 20.3969 11.3636C20.474 11.4116 20.5401 11.4722 20.5936 11.5415C20.6854 11.6604 20.74 11.805 20.7488 11.9562C20.7502 11.9791 20.7505 12.0021 20.7497 12.0251C20.7473 12.0955 20.7351 12.1647 20.7137 12.2307C20.6866 12.3145 20.6456 12.3913 20.5936 12.4586C20.5271 12.5445 20.4428 12.615 20.3467 12.6651L5.35297 20.6618C5.07767 20.8086 4.74022 20.7697 4.50561 20.564C4.27099 20.3583 4.18823 20.0288 4.29779 19.7367L6.91939 12.7457C6.94587 12.7485 6.97277 12.75 7 12.75H13C13.4142 12.75 13.75 12.4142 13.75 12C13.75 11.5858 13.4142 11.25 13 11.25H7C6.97276 11.25 6.94587 11.2515 6.91939 11.2543L4.29779 4.26335C4.18823 3.97121 4.27099 3.64175 4.50561 3.43606Z" fill="#002B51"/>
</svg>
